Catalina-light/actions/22/similarartists-amarok.svg

<svg xmlns="http://www.w3.org/2000/svg" viewBox="0 0 22 22">
  <defs id="defs3051">
    <style type="text/css" id="current-color-scheme">
      .ColorScheme-Text {
        color:#4d4d4d;
      }
      .ColorScheme-Highlight {
        color:#3daee9;
      }
      </style>
  </defs>
 <path 
     style="fill:currentColor;fill-opacity:1;stroke:none" 
     d="M 8.1679688 3 C 6.1617877 3 4.4453125 4.3601815 4.4453125 6.9550781 C 4.4453125 8.6492146 5.2311254 10.369173 6.2714844 11.431641 C 6.6770159 12.495371 5.9523818 12.890357 5.8007812 12.945312 C 4.3872427 13.402421 0.54267745 15.681086 0.60351562 19 L 15.794922 19 C 15.862725 15.829494 12.82129 13.770988 10.417969 12.945312 C 10.317533 12.912466 9.6833899 12.625778 10.080078 11.419922 L 10.074219 11.419922 C 11.108261 10.354928 11.898437 8.6422663 11.898438 6.9550781 C 11.898438 4.3608132 10.172886 3 8.1679688 3 z "
     class="ColorScheme-Text"
     />
 <path 
     style="fill:currentColor;fill-opacity:1;stroke:none" 
     d="M 15.675781 7 C 14.171145 7 12.884766 8.0186713 12.884766 9.9648438 C 12.884766 11.235446 13.473637 12.527368 14.253906 13.324219 C 14.558055 14.122017 14.014091 14.417768 13.900391 14.458984 C 12.840237 14.801816 9.9563245 16.510814 10.001953 19 L 21.396484 19 C 21.447336 16.622121 19.165772 15.078241 17.363281 14.458984 C 17.287955 14.434349 16.811859 14.218845 17.109375 13.314453 L 17.105469 13.314453 C 17.881 12.515708 18.474609 11.230235 18.474609 9.9648438 C 18.474609 8.019145 17.17947 7 15.675781 7 z "
     class="ColorScheme-Highlight"
     />
</svg>

<svg viewBox="0 0 22 22" xmlns="http://www.w3.org/2000/svg">
<defs>
<style id="current-color-scheme" type="text/css">.ColorScheme-Text {
        color:#4d4d4d;
      }
      .ColorScheme-Highlight {
        color:#3daee9;
      }</style>
</defs>
<path class="ColorScheme-Text" d="m8.168 3c-2.0062 0-3.7227 1.3602-3.7227 3.9551 0 1.6941 0.78581 3.4141 1.8262 4.4766 0.40553 1.0637-0.3191 1.4587-0.4707 1.5137-1.4135 0.45711-5.2581 2.7358-5.1973 6.0547h15.191c0.067803-3.1705-2.9736-5.229-5.377-6.0547-0.10044-0.032846-0.73458-0.31953-0.33789-1.5254h-0.005859c1.034-1.065 1.8242-2.7777 1.8242-4.4648 0-2.5943-1.7256-3.9551-3.7305-3.9551z" fill="currentColor"/>
<path class="ColorScheme-Highlight" d="m15.676 7c-1.5046 0-2.791 1.0187-2.791 2.9648 0 1.2706 0.58887 2.5625 1.3691 3.3594 0.30415 0.7978-0.23982 1.0935-0.35352 1.1348-1.0602 0.34283-3.9441 2.0518-3.8984 4.541h11.395c0.050852-2.3779-2.2307-3.9218-4.0332-4.541-0.075326-0.024635-0.55142-0.24014-0.25391-1.1445h-0.003906c0.77553-0.79874 1.3691-2.0842 1.3691-3.3496 0-1.9457-1.2951-2.9648-2.7988-2.9648z" fill="currentColor"/>
</svg>
